svgs/regular/sliders.svg

<svg xmlns="http://www.w3.org/2000/svg" viewBox="0 0 512 512"><!--! Font Awesome Pro 6.3.0 by @fontawesome - https://fontawesome.com License - https://fontawesome.com/license (Commercial License) Copyright 2023 Fonticons, Inc. --><path d="M0 416c0-13.3 10.7-24 24-24l59.7 0c10.2-32.5 40.5-56 76.3-56s66.1 23.5 76.3 56L488 392c13.3 0 24 10.7 24 24s-10.7 24-24 24l-251.7 0c-10.2 32.5-40.5 56-76.3 56s-66.1-23.5-76.3-56L24 440c-13.3 0-24-10.7-24-24zm192 0a32 32 0 1 0 -64 0 32 32 0 1 0 64 0zM384 256a32 32 0 1 0 -64 0 32 32 0 1 0 64 0zm-32-80c35.8 0 66.1 23.5 76.3 56l59.7 0c13.3 0 24 10.7 24 24s-10.7 24-24 24l-59.7 0c-10.2 32.5-40.5 56-76.3 56s-66.1-23.5-76.3-56L24 280c-13.3 0-24-10.7-24-24s10.7-24 24-24l251.7 0c10.2-32.5 40.5-56 76.3-56zM192 64a32 32 0 1 0 0 64 32 32 0 1 0 0-64zm76.3 8L488 72c13.3 0 24 10.7 24 24s-10.7 24-24 24l-219.7 0c-10.2 32.5-40.5 56-76.3 56s-66.1-23.5-76.3-56L24 120C10.7 120 0 109.3 0 96S10.7 72 24 72l91.7 0c10.2-32.5 40.5-56 76.3-56s66.1 23.5 76.3 56z"/></svg>

<svg xmlns="http://www.w3.org/2000/svg" viewBox="0 0 512 512"><!--! Font Awesome Pro 6.2.0 by @fontawesome - https://fontawesome.com License - https://fontawesome.com/license (Commercial License) Copyright 2022 Fonticons, Inc. --><path d="M0 416C0 402.7 10.75 392 24 392H83.66C93.86 359.5 124.2 336 160 336C195.8 336 226.1 359.5 236.3 392H488C501.3 392 512 402.7 512 416C512 429.3 501.3 440 488 440H236.3C226.1 472.5 195.8 496 160 496C124.2 496 93.86 472.5 83.66 440H24C10.75 440 0 429.3 0 416zM192 416C192 398.3 177.7 384 160 384C142.3 384 128 398.3 128 416C128 433.7 142.3 448 160 448C177.7 448 192 433.7 192 416zM352 176C387.8 176 418.1 199.5 428.3 232H488C501.3 232 512 242.7 512 256C512 269.3 501.3 280 488 280H428.3C418.1 312.5 387.8 336 352 336C316.2 336 285.9 312.5 275.7 280H24C10.75 280 0 269.3 0 256C0 242.7 10.75 232 24 232H275.7C285.9 199.5 316.2 176 352 176zM384 256C384 238.3 369.7 224 352 224C334.3 224 320 238.3 320 256C320 273.7 334.3 288 352 288C369.7 288 384 273.7 384 256zM488 72C501.3 72 512 82.75 512 96C512 109.3 501.3 120 488 120H268.3C258.1 152.5 227.8 176 192 176C156.2 176 125.9 152.5 115.7 120H24C10.75 120 0 109.3 0 96C0 82.75 10.75 72 24 72H115.7C125.9 39.54 156.2 16 192 16C227.8 16 258.1 39.54 268.3 72H488zM160 96C160 113.7 174.3 128 192 128C209.7 128 224 113.7 224 96C224 78.33 209.7 64 192 64C174.3 64 160 78.33 160 96z"/></svg>
